common/svg/sparkles-icon.svg

<svg fill="none" height="20" viewBox="0 0 20 20" width="20" xmlns="http://www.w3.org/2000/svg"><g fill="#000"><path d="m15.148 12.8762-1.5527 3.9133c-.2449.6171-1.1375.6406-1.4167.0375l-1.8466-3.989c-.0816-.1763-.2309-.3148-.41627-.3863l-3.66947-1.4155c-.60048-.2317-.6543-1.0343-.0898-1.33914l3.82595-2.06621c.14439-.07796.25889-.19897.32649-.345l1.8697-4.0389c.2792-.60317 1.1718-.57958 1.4167.03743l1.5727 3.96374c.0672.16924.1959.30886.362.39259l4.0569 2.04487c.59.29736.5365 1.13102-.0869 1.35542l-3.9031 1.4053c-.2064.0743-.3699.2309-.4489.4299z"/><path d="m5.50788 5.53369-1.05321 2.4982c-.08397.19918-.37227.20713-.46781.01289l-1.24148-2.5241c-.02849-.05793-.07909-.10289-.14114-.12542l-2.438235-.88522c-.2068918-.07512-.2247262-.35174-.029088-.45118l2.488623-1.26493c.04896-.02489.08828-.06447.11205-.1128l1.24927-2.539941c.09554-.1942332.38384-.1862911.46781.012888l1.05995 2.514203c.02371.05624.06794.10208.12428.12881l2.65231 1.25825c.20389.09672.18625.38354-.02806.45616l-2.60294.88202c-.06917.02344-.12464.07448-.15233.14017z"/><path d="m6.24352 17.7702-.7619 2.0654c-.07864.2132-.38711.2209-.47704.012l-.89935-2.0897c-.02561-.0595-.07417-.107-.13537-.1324l-1.83228-.7603c-.19181-.0796-.20979-.3361-.03085-.44l1.88641-1.0958c.04687-.0272.08349-.0683.10452-.1171l.90692-2.1073c.08993-.209.3984-.2013.47704.0119l.76845 2.0831c.02079.0564.06197.1036.11592.1328l2.00702 1.0882c.18768.1017.16974.3687-.02998.446l-1.95361.7566c-.0681.0264-.12123.0798-.1459.1466z"/></g></svg>

<svg width="20" height="20" viewBox="0 0 20 20" fill="none" xmlns="http://www.w3.org/2000/svg">
<path d="M15.148 12.8762L13.5953 16.7895C13.3504 17.4066 12.4578 17.4301 12.1786 16.827L10.332 12.838C10.2504 12.6617 10.1011 12.5232 9.91573 12.4517L6.24626 11.0362C5.64578 10.8045 5.59196 10.0019 6.15646 9.69706L9.98241 7.63085C10.1268 7.55289 10.2413 7.43188 10.3089 7.28585L12.1786 3.24695C12.4578 2.64378 13.3504 2.66737 13.5953 3.28438L15.168 7.24812C15.2352 7.41736 15.3639 7.55698 15.53 7.64071L19.5869 9.68558C20.1769 9.98294 20.1234 10.8166 19.5 11.041L15.5969 12.4463C15.3905 12.5206 15.227 12.6772 15.148 12.8762Z" fill="black"/>
<path d="M5.50788 5.53369L4.45467 8.03189C4.3707 8.23107 4.0824 8.23902 3.98686 8.04478L2.74538 5.52068C2.71689 5.46275 2.66629 5.41779 2.60424 5.39526L0.166005 4.51004C-0.0408868 4.43492 -0.0587212 4.1583 0.136917 4.05886L2.62554 2.79393C2.6745 2.76904 2.71382 2.72946 2.73759 2.68113L3.98686 0.141189C4.0824 -0.0530442 4.3707 -0.0451021 4.45467 0.154077L5.51462 2.66828C5.53833 2.72452 5.58256 2.77036 5.6389 2.79709L8.29121 4.05534C8.4951 4.15206 8.47746 4.43888 8.26315 4.5115L5.66021 5.39352C5.59104 5.41696 5.53557 5.468 5.50788 5.53369Z" fill="black"/>
<path d="M6.24352 17.7702L5.48162 19.8356C5.40298 20.0488 5.09451 20.0565 5.00458 19.8476L4.10523 17.7579C4.07962 17.6984 4.03106 17.6509 3.96986 17.6255L2.13758 16.8652C1.94577 16.7856 1.92779 16.5291 2.10673 16.4252L3.99314 15.3294C4.04001 15.3022 4.07663 15.2611 4.09766 15.2123L5.00458 13.105C5.09451 12.896 5.40298 12.9037 5.48162 13.1169L6.25007 15.2C6.27086 15.2564 6.31204 15.3036 6.36599 15.3328L8.37301 16.421C8.56069 16.5227 8.54275 16.7897 8.34303 16.867L6.38942 17.6236C6.32132 17.65 6.26819 17.7034 6.24352 17.7702Z" fill="black"/>
</svg>
